X: 1581
T: Son of Prosperity, The
R:hornpipe
N:"Collected by F. O'Neill"
B:O'Neill's 1581
Z:Transcribed by Michael Hogan
M:C|
L:1/8
K:D
(AG) | FDFA dABG | (F<A) D2 D2 (AG) |  FDFA dABG | (F<A) D2 D2 (AG) |
FDFA dABG | (F<A) D2 D2 (AG) |  FDAD (3EFG CE | F2 D2 D2 :|
(3ABc | dedc AGAB | cdcA (3ABc | dedc AGEF | (E<G) C2 C2 (3ABc |
dedc ABAG | FEFG ABAG | FDAD (3EFG CE | F2 D2 D2 :||


